X:1
T:Ach Schatz, O süsses Leben
T:Antonio Brunelli
T:Source : Tricinia---Johann-Jacob Gastoldi und anderer Autorn---Nürnberg---P.Kauffmann---1607. Editor : André Vierendeels (20/03/17).
T:Notes : Original clefs : C1, C1, F4 Editorial accidentals above the staff Text Middle German by Valentin Hauszmann Sub-heading :  from "Affettuoso Invaghito" m 5 in S 2 : "G" notated as "A" in original print
T:Ach Schatz, O süsses Leben
T:©
T:©
T:©
C:Antonio Brunelli
Z:©
%%score [ 1 2 3 ]
L:1/8
Q:1/4=100
M:4/4
K:F
V:1 treble nm="Soprano 1" snm="S 1"
V:2 treble nm="Soprano 2" snm="S 2"
V:3 bass nm="Bass" snm="B"
V:1
"^1)" A6 B2 | c4 d4- | d2 c2 G4- | G4 ^F2 d2 | _e2 B2 c4 | d2 B2 Bcfe | f2 F2 GABc | d2 A2 d2 c2 | %8
w: Ach Schatz,|O süs-|* ses Le-|ben, ver- nimm|doch e- ben,|die kläg- * * * *|* lich stimm, _ _ _|_ so sich jetzt|
w: Durch dei-|ne lieb|_ ist kom-|men, hab ich|ver- nom- men,|ein brün- stig _ _ _|flamm, die scha- * * *|* ffe mir we-|
 B2 A2 G3 A | B3 A/G/ A4 |[M:2/4] G4 ::[M:4/4] z4 G2 GG | A6 F2 | E4 D4 | z2 AB c2 d2- | d2 c2 A4 | %16
w: thut er- he- *||ben,|ausz meim be-|trüb- ten|Hert- zen,|wel- che ist ganz|_ und gar|
w: nig from- * *||men,|sie thut mir|so sehr|bren- nen,|ich möcht mein ärg-|* sten feind|
 DEFG AB c2- | cBAG F2 f2- | fedc B2 _e2- | edcB A2 B2 | A4 G2 Bc | d2 de f4 | z2 FG A2 AB | %23
w: umb- * * * * * *|* * * * gebn _|_ _ _ _ _ _|* * * * * mit|schmer- zen, wel- ches|ist ganz und gar,|wel- ches ist ganz und|
w: solch _ _ _ _ _ _|_ _ _ _ plag nicht|_ _ _ _ _ _||gön- nen, ich möcht|mein ärg- sten feind|ich möcht mein ärg- sten|
 c4 c2 Bc | d6 cB | A4 !fermata!G4 :| %26
w: gar umb- gebn mit|schmer- * *|* zen|
w: feind solch plag nicht|gön- * *|* nen.|
V:2
"^2)""^1)" ^F6 G2 | A4 A2 B2 | G3 A B2 c2 | A6 BG | G2 B4 A2 | B8 | z2 c2 Bcde | f2 F2 AB cB/A/ | %8
w: Ach Schatz,|O süs- ses|Le- * * ben,|ver- nimm doch|e- * *|ben,|die kläg- * * *|* lich stimm, _ _ _ _|
w: Nichts wolt|ich wün- schen|meh- * * re,|denn dasz ich|we- * *|re,|wis- send _ _ _|_ und kunth _ _ _ _|
 G2 C2 D2 E2 | ^F2 G4 F2 |[M:2/4] G4 ::[M:4/4] F2 FF D4 | E4 ^C2 D2- | D2 ^C2 D2 FG | A8 | %15
w: _ so sich jetzt|thut er- he-|ben,|ausz meim be- trüb-|ten Hert- *|* * zen, wel- ches|ist|
w: _ meins Hert'zen e-|lend schwe- *|re,|so wür- dest du|mir Ar- *|* * men, glau- ben,|was|
 B2 G2 ^F2 DE |"^-natural" FGAB c3 B | AG F2 d3 c | BA G2 _e3 d | cBAG ^F2 G2- | G2 ^F2 G2 GA | %21
w: ganz und gar umb- *||* * * gebn _|_ _ _ _ _|* * * * mit schmer-|* * zen, wel- ches|
w: ich dir kläg, und _|_ _ _ _ _ _|* * * dich _|_ _ _ _ _|* * * * er- bar-|* * men, glau- ben,|
 B4 A2 D2 | F6 F2 | A4 G4 | B3 A/G/ ^F2 G2- | G2 ^F2 !fermata!G4 :| %26
w: ist ganz und|gar umb-|gebn mit|schmer- * * * *|* * zen.|
w: was ic dir|kläg, und|dich er|bar- * * * *|* * men.|
V:3
"^3)""^1)""^4)" D,6 G,2 |"^-natural" F,4 F,2 G,2 | _E,8 | D,6 G,2 | _E,2 D,2 F,4 | B,,4 B,4 | %6
w: Ach Schatzn|O süs- ses|Le-|ben, ver-|nimm doch e-|be, die|
w: Ach thu|doch einst be-|hert-|zen, den|gros- sen schmer-|zen, da-|
 A,4 G,4 | F,4 F,,4 | G,,2 A,,2 B,,2 C,2 | D,8 |[M:2/4] G,,4 ::[M:4/4] D,2 D,D, =B,,4 | %12
w: kläg- lich|stimm, so|sich jetzt thut er-|he-|ben,|ausz meim be- trub-|
w: vin ich|sing, und|halts für kei- nen|schmer-|zen,|mein jun- ges Hert-|
 ^C,4 A,,4- | A,,4 D,2 D,E, | F,8 | G,2 _E,2 D,4- | D,4 A,,4- | A,,4 B,,4- | B,,4 C,4- | C,4 D,4- | %20
w: ten Hert-|* zen, wel- ches|ist|ganz und gar|_ umb-|* gebn|_ mit|_ schmer-|
w: za la-|* be, es ist|ge-|hol- ffen mir,|_ wenn|_ ich|_ dich|_ ha-|
 D,4 G,,2 G,,2- | G,,A,,B,,C, D,2 B,,2- | B,,C,D,E, F,2 F,,2- | F,,G,,A,,B,, C,2 G,,2- | %24
w: * zen, umb-|* * * * * gebn|_ _ _ _ _ mit|_ _ _ _ _ schmer-|
w: * be, wenn|_ _ _ _ _ ich|_ _ _ _ _ dich|_ _ _ _ _ ha-|
 G,,A,,B,,C, D,2 _E,2 | C,2 D,2 !fermata!G,,4 :| %26
w: |* * zen.|
w: |* * be.|

